X:2345
T:Grandfather's Dance
O:england
C:Trad
M:4/4
L:1/8
K:D
|:F2A2B2c2|dc de f2a2|g2f2e2d2|c2B2A2G2|
F2A2B2c2|dc de f2a2|g2f2e2Bc|d2f2d4:|
|:e2A2e2A2|g2f2e2A2|g2f2e2d2|c2B2A2G2|
F2A2B2c2|dc de f2a2|g2f2e2Bc|d2f2d4:|


